!! 00000] TT[WS
!!!OTL: Da luotuo
!!!ARE: Asia, China, Shanxi Yanbei
!! Ethnic Group: Han
!! WII, 72
!!!SCT: J0504
!!!YEM: Copyright 1995, estate of Helmut Schaffrath.
**kern
*ICvox
*Ivox
*M2/4
*k[b-e-]
*B-:
{4ccc
4gg
=1
4.ff
24gg
24ff
24een
=2
2ff}
=3
{4ff
4een
=4
4fff
4ccc
=5
4.gg
24gg
24ff
24een
=6
2ff}
=7
{8fff
4fff
8ddd
=8
8ccc
4ccc
8gg
=9
4ff
4ccc
=10
4.gg
24gg
24ff
24een}
=11
{8gg
4gg
16ff
16dd
=12
8dd
4.cc
=13
4gg
8ff
8dd
=14
2cc}
=15
{8ff
8een
8ff
8gg
=16
8ccc
16bb-
16gg
8ff
8een}
=17
{8gg
4ff
16ff
16dd
=18
8dd
4cc
8b-
=19
4gg
8ff
8dd
=20
2cc}
==
!!!AGN: Xiaodiao. Qingge, Sichun
!!!ONB: ESAC (Essen Associative Code) Database: CHINA
!!!AMT: simple duple
!!!AIN: vox
!!!EED: Helmut Schaffrath
!!!EEV: 1.0
*-
